X:1
T:Title
%%score { 1 | 2 }
L:1/8
M:4/4
K:Db
V:1 treble nm="Grand Piano"
V:2 bass 
V:1
 z4 z2 z[Q:1/4=82] [FA] | [GB][FA][_F=G][=FA] [Fd][DF][FA][Fd] | cBAG F3 [FA] | %3
 [GB][FA][_F=G][=FA] [Fd][DF][FA][Ad] | cABc [Fd]3 [FA] | ABA[EG] [DF]>[EG] [FA][FA] | %6
[M:7/8] [GB][GB][=GB]>[GB] c3 |[M:1/8] c |[M:4/4] [Fe][Fd][FA][F=A] [_Ac]B A<B | %9
[M:7/8] F2 [CE]2 D3 |[M:1/8] [FA] |[M:4/4] ABcB A<B c>d | e6 z A | %13
 [Af]ed=d [=Ge]<[EGB] [FG_d]>[EGc] | [CEA]6 z [CGA] | %15
[M:9/8] [FA]>[FA][GB]- [GB]/[FA]/[FA][Fd]- [Fd]2 [FA] | A>AB- B/A/Ae- e2 A | %17
[M:4/4] [Af][Fd]FB A<f e>[Fd] |[M:7/8] [Fd]-[Fd]-[Fd]- [Fd]3 z |] %19
V:2
 z4 z2 z [D,D] | [D,D][D,D][D,D][D,D] [D,A,][D,A,][D,D][D,D] | %2
 [A,EG][A,CG][A,DF][K:bass][A,E] [D,A,D]3 [D,D] | [D,D][D,D][D,D][D,D] [D,A,][D,A,][D,D][F,D] | %4
 [A,EG][A,CG][A,DG][A,G][K:bass] [D,A,]3 [D,D] | %5
 [A,CG][A,CG][A,CF][K:bass][A,,A,] [D,A,]>[D,A,] [D,D][D,D] | %6
[M:7/8] [G,D][G,D][E,E]>[E,E][K:treble] [A,EG]3 |[M:1/8] [A,G] | %8
[M:4/4][K:bass] [D,A,][D,A,][D,D][D,D] [G,D][G,DG] [F,D]<[G,D] |[M:7/8] [A,D]2 [A,,G,]2 [D,F,]3 | %10
[M:1/8] [D,D] |[M:4/4][K:treble] [A,CG][A,DG][A,EG][A,DG] [A,CG]<[A,DG] [A,EG]>[A,B,G] | %12
 [A,CG]6 z [A,CG] | [D,D][K:treble][A,CG][B,DF][B,F][K:bass] [E,B,]<E, E,>E, | A,6 z A, | %15
[M:9/8] [D,D]>[D,D][D,D]- [D,D]/[D,D]/[D,D][D,A,D]- [D,A,D]2 [D,D] | %16
 [A,CG]>[A,CG][A,CG]- [A,CG]/[A,CG]/[A,CG][A,CG]- [A,CG]2 [A,CG] | %17
[M:4/4][K:bass] [D,D][D,A,][D,D][K:treble][G,DG] [A,DF]<[A,DA] [A,CG]>[K:bass][D,A,] | %18
[M:7/8] [D,A,]-[D,A,]-[D,A,]- [D,A,]3 z |] %19

